X: 33550
T: Rakes Of Cashel, The
R: jig
M: 6/8
K: Gminor
|:G2g gdg|gdg fdc|B2g abg|fdd cAF|
G2g gdg|gdg fdc|B2b abg|1 fdd cAF:|2 fdd cAF||
|:~B3 cBc|d2g gfa|~B3 cBc|ded cAF|
~B3 cBc|d2g gfe|fdd ecc|1 dBB cAA:|2 fdf cAF||
|:~B3 GDG|G2g gdc|~B3 GDG|GBd cAF|
~B3 GDG|GBd gfe|fdd ecc|1 dBB cAA:|2 fdf cAF||
|:G2g abg|abg fdc|B2g abg|fdd cAF|
G2g abg|abg g2e|fdd ecc|1 dBB cAA:|2 fdf cAF||
|:BFF cFF|dFF Bdg|BFF cFF|ded cAF|
BFF cFF|dFF gfe|fdd ecc|1 dBB cAA:|2 gfd cAF||

